Papirus-GTK/24x24/apps/kreversi.svg

<svg height="24" width="24" xmlns="http://www.w3.org/2000/svg"><path d="m12.743 22c5.1125 0 9.258-4.4776 9.258-10 0-5.5224-4.14535-10-9.258-10-2.61905 0-4.74195 1.7388-4.74195 4.5 0 2.7612 2.2988 4.3215 4.5 5 2.1523.6634 4.9839 2.7388 4.9839 5.5 0 2.7612-2.1229 5-4.74195 5z" fill="#f65e5e"/><path d="m11.258 2c-5.1125 0-9.258 4.4776-9.258 10 0 5.5224 4.14535 10 9.258 10 2.61905 0 4.74195-1.7388 4.74195-4.5 0-2.7612-2.2988-4.3215-4.5-5-2.1523-.6634-4.9839-2.7388-4.9839-5.5 0-2.7612 2.1229-5 4.74195-5z" fill="#8d62ad"/><path d="m13.003906 5.5a2 2 0 0 0 -2 2 2 2 0 0 0  2 2 2 2 0 0 0  2-2 2 2 0 0 0 -2-2zm-2 10a2 2 0 0 0 -1.9999998 2 2 2 0 0 0  1.9999998 2 2 2 0 0 0  2-2 2 2 0 0 0 -2-2z" opacity=".2"/><circle cx="11.003004" cy="17" fill="#fff" r="2"/><circle cx="-13.003004" cy="-7" fill="#fff" r="2" transform="scale(-1)"/><path d="m10.372 2.0469c-.657.0676-1.2935.2098-1.903.41795-1.18.90955-1.9495 2.37605-1.9495 4.03515 0 .0725.01.143.014.215.121-2.26075 1.661-4.1186 3.7-4.5939.046-.02525.0915-.05045.1385-.0742zm-2.3565 4.1931c-.004.0865-.0125.1715-.0125.26 0 2.761 2.299 4.3215 4.5 5 2.0955.646 4.827 2.6325 4.9695 5.285.0055-.095.014-.1885.014-.285 0-2.761-2.831-4.8365-4.9835-5.5-2.1355-.6585-4.3565-2.15-4.4875-4.76zm-6.001 5.51c-.0019.084-.0117.1655-.0117.25 0 5.5225 4.145 10 9.258 10 .8655 0 1.6745-.193 2.373-.547-.293.0305-.589.047-.889.047.3535 0 .6965-.044 1.0275-.121 1.338-.7365 2.2305-2.0915 2.2305-3.879 0-.0825-.0085-.16-.0125-.24-.1305 2.608-2.1945 4.24-4.7295 4.24-5.035 0-9.122-4.344-9.2465-9.75zm19.977 0c-.1005 4.3605-2.777 8.03-6.4545 9.285-.7835.6045-1.7465.965-2.792.965 5.113 0 9.258-4.4775 9.258-10 0-.0845-.01-.166-.0115-.25z" opacity=".3"/><path d="m11.261 2c-5.113 0-9.258 4.4775-9.258 10 0 .0845.0098.166.0117.25.10005-4.3605 2.777-8.03 6.4545-9.285.7835-.60435 1.7465-.965 2.792-.965zm1.484 0c-.8655 0-1.6745.193-2.373.5469.293-.03015.589-.0469.889-.0469-.3535 0-.6965.0439-1.0275.1211-1.338.7362-2.2305 2.09145-2.2305 3.8789 0 .0825.0085.16.0125.24.1305-2.6081 2.1945-4.24 4.7295-4.24 5.035 0 9.1225 4.344 9.2465 9.75.0015-.084.0115-.1655.0115-.25 0-5.5225-4.145-10-9.258-10zm-6.2115 5.215c-.0055.095-.014.1885-.014.285 0 2.761 2.831 4.8365 4.9835 5.5 2.1355.6585 4.3565 2.15 4.4875 4.76.004-.0865.0125-.1715.0125-.26 0-2.761-2.299-4.3215-4.5-5-2.0955-.646-4.827-2.6325-4.9695-5.285zm10.939 10.07c-.121 2.2605-1.661 4.1185-3.7 4.594-.046.025-.0915.0505-.1385.074.657-.0675 1.2935-.2095 1.903-.418 1.18-.9095 1.9495-2.376 1.9495-4.035 0-.0725-.01-.143-.014-.215z" fill="#fff" opacity=".2"/></svg>

<?xml version="1.0" encoding="UTF-8" standalone="no"?>
<!-- Created with Inkscape (http://www.inkscape.org/) -->

<svg
   xmlns:dc="http://purl.org/dc/elements/1.1/"
   xmlns:cc="http://creativecommons.org/ns#"
   xmlns:rdf="http://www.w3.org/1999/02/22-rdf-syntax-ns#"
   xmlns:svg="http://www.w3.org/2000/svg"
   xmlns="http://www.w3.org/2000/svg"
   xmlns:sodipodi="http://sodipodi.sourceforge.net/DTD/sodipodi-0.dtd"
   xmlns:inkscape="http://www.inkscape.org/namespaces/inkscape"
   id="svg4125"
   height="24"
   width="24"
   version="1.1"
   inkscape:version="0.91 r13725"
   sodipodi:docname="kreversi.svg">
  <sodipodi:namedview
     pagecolor="#ffffff"
     bordercolor="#666666"
     borderopacity="1"
     objecttolerance="10"
     gridtolerance="10"
     guidetolerance="10"
     inkscape:pageopacity="0"
     inkscape:pageshadow="2"
     inkscape:window-width="1600"
     inkscape:window-height="845"
     id="namedview20"
     showgrid="false"
     inkscape:zoom="1"
     inkscape:cx="9.8223246"
     inkscape:cy="10.243006"
     inkscape:window-x="0"
     inkscape:window-y="32"
     inkscape:window-maximized="1"
     inkscape:current-layer="svg4125" />
  <defs
     id="defs4127" />
  <metadata
     id="metadata4130">
    <rdf:RDF>
      <cc:Work
         rdf:about="">
        <dc:format>image/svg+xml</dc:format>
        <dc:type
           rdf:resource="http://purl.org/dc/dcmitype/StillImage" />
        <dc:title />
      </cc:Work>
    </rdf:RDF>
  </metadata>
  <path
     style="fill:#f65e5e"
     inkscape:connector-curvature="0"
     d="m 12.743,22 c 5.1125,0 9.258,-4.4776 9.258,-10 0,-5.5224 -4.14535,-10 -9.258,-10 -2.61905,0 -4.74195,1.7388 -4.74195,4.5 0,2.7612 2.2988,4.3215 4.5,5 2.1523,0.6634 4.9839,2.7388 4.9839,5.5 0,2.7612 -2.1229,5 -4.74195,5 z"
     id="path5010" />
  <path
     style="fill:#8d62ad"
     inkscape:connector-curvature="0"
     d="M 11.258,2 C 6.1455,2 2,6.4776 2,12 c 0,5.5224 4.14535,10 9.258,10 2.61905,0 4.74195,-1.7388 4.74195,-4.5 0,-2.7612 -2.2988,-4.3215 -4.5,-5 -2.1523,-0.6634 -4.9839,-2.7388 -4.9839,-5.5 0,-2.7612 2.1229,-5 4.74195,-5 z"
     id="path4559-2" />
  <path
     style="opacity:0.2;fill:#000000;fill-opacity:1"
     d="m 13.003906,5.5 a 2,2 0 0 0 -2,2 2,2 0 0 0 2,2 2,2 0 0 0 2,-2 2,2 0 0 0 -2,-2 z m -2,10 a 2,2 0 0 0 -1.9999998,2 2,2 0 0 0 1.9999998,2 2,2 0 0 0 2,-2 2,2 0 0 0 -2,-2 z"
     id="circle4183"
     inkscape:connector-curvature="0" />
  <circle
     style="fill:#ffffff"
     id="path5012"
     cy="17"
     cx="11.003004"
     r="2" />
  <circle
     style="fill:#ffffff"
     id="circle5022"
     cx="-13.003004"
     transform="scale(-1,-1)"
     cy="-7"
     r="2" />
  <path
     style="opacity:0.3"
     inkscape:connector-curvature="0"
     d="M 10.372,2.0469 C 9.715,2.1145 9.0785,2.2567 8.469,2.46485 7.289,3.3744 6.5195,4.8409 6.5195,6.5 c 0,0.0725 0.01,0.143 0.014,0.215 0.121,-2.26075 1.661,-4.1186 3.7,-4.5939 0.046,-0.02525 0.0915,-0.05045 0.1385,-0.0742 z M 8.0155,6.24 C 8.0115,6.3265 8.003,6.4115 8.003,6.5 c 0,2.761 2.299,4.3215 4.5,5 2.0955,0.646 4.827,2.6325 4.9695,5.285 0.0055,-0.095 0.014,-0.1885 0.014,-0.285 0,-2.761 -2.831,-4.8365 -4.9835,-5.5 C 10.3675,10.3415 8.1465,8.85 8.0155,6.24 Z m -6.001,5.51 C 2.0126,11.834 2.0028,11.9155 2.0028,12 c 0,5.5225 4.145,10 9.258,10 0.8655,0 1.6745,-0.193 2.373,-0.547 -0.293,0.0305 -0.589,0.047 -0.889,0.047 0.3535,0 0.6965,-0.044 1.0275,-0.121 1.338,-0.7365 2.2305,-2.0915 2.2305,-3.879 0,-0.0825 -0.0085,-0.16 -0.0125,-0.24 -0.1305,2.608 -2.1945,4.24 -4.7295,4.24 -5.035,0 -9.122,-4.344 -9.2465,-9.75 z m 19.977,0 C 21.891,16.1105 19.2145,19.78 15.537,21.035 14.7535,21.6395 13.7905,22 12.745,22 c 5.113,0 9.258,-4.4775 9.258,-10 0,-0.0845 -0.01,-0.166 -0.0115,-0.25 z"
     id="path5028" />
  <path
     style="opacity:0.2;fill:#ffffff"
     inkscape:connector-curvature="0"
     d="M 11.261,2 C 6.148,2 2.003,6.4775 2.003,12 c 0,0.0845 0.0098,0.166 0.0117,0.25 C 2.11475,7.8895 4.7917,4.22 8.4692,2.965 9.2527,2.36065 10.2157,2 11.2612,2 Z m 1.484,0 C 11.8795,2 11.0705,2.193 10.372,2.5469 10.665,2.51675 10.961,2.5 11.261,2.5 10.9075,2.5 10.5645,2.5439 10.2335,2.6211 8.8955,3.3573 8.003,4.71255 8.003,6.5 8.003,6.5825 8.0115,6.66 8.0155,6.74 8.146,4.1319 10.21,2.5 12.745,2.5 c 5.035,0 9.1225,4.344 9.2465,9.75 C 21.993,12.166 22.003,12.0845 22.003,12 22.003,6.4775 17.858,2 12.745,2 Z M 6.5335,7.215 C 6.528,7.31 6.5195,7.4035 6.5195,7.5 c 0,2.761 2.831,4.8365 4.9835,5.5 2.1355,0.6585 4.3565,2.15 4.4875,4.76 0.004,-0.0865 0.0125,-0.1715 0.0125,-0.26 0,-2.761 -2.299,-4.3215 -4.5,-5 C 9.4075,11.854 6.676,9.8675 6.5335,7.215 Z m 10.939,10.07 c -0.121,2.2605 -1.661,4.1185 -3.7,4.594 -0.046,0.025 -0.0915,0.0505 -0.1385,0.074 0.657,-0.0675 1.2935,-0.2095 1.903,-0.418 1.18,-0.9095 1.9495,-2.376 1.9495,-4.035 0,-0.0725 -0.01,-0.143 -0.014,-0.215 z"
     id="path5033" />
</svg>
